X: 368
T: the Dark Maiden of the Valley
R: air
%S: s:2 b:16(8+8)
B: O'Neill's 1850 #368
O: J.O'Neill.
Z: Chris Falt, cfalt@trytel.com
Q: "Moderate."
M: 3/4
L: 1/8
K: G
((3GBd) | {f}e2 (de dc) | (B>A) (GE) (G>B) | {B}A2 G2 (GA) | G6 \
(A//B//c//d//e//f//) | g2 (gb ag) | (f>d) (BA) (GA) | B2 (d>f) (ec) | {c}d6 ||
(A//B//c//d//e//f//) | g2 (gb ag) | f2 (dc BA) | G2 GA (B/d/e/f/) | g4 \
((3bag) | f2 de dc | B>A GE G>B | {B}A2 G2 GA | {F}G2 |]
